!!!!SEGMENT: pl-wumfc--r301_paderewski-ignacy-jan--berceuse-de-manru.krn
!!!cenid: 18xx:3217
!!!COM: Paderewski, Ignacy Jan
!!!COM-rismid: pe30029943
!!!CDT: 1860/11/18-1941/06/29
!!!CNT: Polish
!!!OTL: Berceuse de Manru
!!!PDT:
!!!AGN:
!!!SMS-siglum: PL-Wumfc
!!!SMS-shelfmark: R301
!!!SMS-shelfwork: W
!!!SMS-variant:
!!!SMS-altvar:
!!!NIFC-rismid: 1001159510
!!!URL-scan: http://repozytorium.nifc.pl/skany/pl-wumfc--r301
!!!ONB-nifc:
!!!URL-scan: http://repozytoriumplikow.nifc.pl/skany/pl-wumfc--r301
**kern	**text
*I"[Voce]	*
*I'V	*
*clefG2	*
*k[b-e-a-d-]	*
*A-:	*
*M6/8	*
=1	=1
!LO:TX:t=P:problem:brak źródła (francuskiego tekstu) w internecie, napisałam wspomagając się google translator-Anastazja Marusiak	!
(8cc\	Dorſ!
4ee-\)	.
(16b-/LL	ſouſ
16cc/JJ)	.
8dd-\	le
8dd-\	re-
=2	=2
8cc\	-gard
8a-/	de
8cc\	ta
(16b-/LL	mê-
16g/JJ)	.
4e-/	-re
!!LO:LB:g=original
=3	=3
8r	.
4cc\	Dorſ!
(16b-/LL	o
16cc/JJ)	.
!LO:TX:a:t=1 cet aviet oui est par <......> chercherai antre chore	!
4ee-\	cher
=4	=4
(16a-/LL	pe-
16b-/JJ)	.
8cc/	-tit
8b-/	en-
(8b-/	-fant
4e-/)	.
!!LO:LB:g=original
=5	=5
8e-/	cloſ
8f/	ta
8a-/	pau-
(8b-/L	-piê-
8cc/J)	.
8ee-\	-re,
=6	=6
(8ff\	Dorſ,
4aa-\)	.
8ee-\	trê
4aa-\	for!
!!LO:LB:g=original
=7	=7
8e-/	En
8f/	fou-
8a-/	-ri-
(8b-\L	-ant
8cc\J)	.
8ee-\	oiut
=8	=8
16ff\	an-
16ff\	-gef,
4aa-\	Dorſ,
8ee-\	en-
!LO:TX:a:t=etc	!
(4aa-\	-cor!
!!LO:LB:g=original
=9	=9
4cc\)	Tieuſ,
8ee-\	voi
16b-/	ci
16cc/	deſ
4dd-\	fleurſ,
=10	=10
8cc\	pê
8a-/	ta-
8cc/	-leſ
(16b-/LL	fre-
16g/JJ)	.
4e-/	-leſ
!!LO:LB:g=original
=11	=11
8.cc\	Blaſ
16cc\	com-
16cc\	-me-
16cc\	-leſ
16b-/	blan-
16cc/	-cheſ
8ee-\	ai-
8ee-\	-leſ
=12	=12
16a-/	Ne
16b-/	to-
8cc\	-nan-
8b-\	-ge
16b-/	gar-
16g/	-di-
!LO:TX:a:t=la rime d-ange gardien vient afrei <....> bien.	!
8e-/	-en
8r	.
!!LO:LB:g=original
=13	=13
8e-/	Il
8f/	eſt
8a-/	la
8b-\	prêſ
8cc\	de
8ee-\	ta
=14	=14
16ff\	cou-
16ff\	-che,
4aa-\	Dorſ,
8ee-\	tre-
4aa-\	-ſor!
!!LO:LB:g=original
=15	=15
8e-/	C'eſt
8f/	lui
8a-/	qui-
8b-/	-dit
8cc\	par-
8ee-\	-ma
=16	=16
16ff\	bou-
16ff\	-che
4aa-\	Dort
8ee-\	en-
4aa-\	-cor!
==	==
*-	*-
!!!system-decoration: s1
!!!ENC:Anastazja Marusiak
!!!END:2021-11-14
!!!ENC: Leszek Kubiak
!!!END: 2021-11-18
